X:1
T:Sechs geistliche Lieder und Gesänge
T:Abendlied
T:Abendlied
T:Carl Reinecke
T:Op. 85, No. 5
T:CPDL   —   Creative Commons Attribution Non Commercial 3.0
T:CPDL   —   Creative Commons Attribution Non Commercial 3.0
T:CPDL   —   Creative Commons Attribution Non Commercial 3.0
T:CPDL   —   Creative Commons Attribution Non Commercial 3.0
T:CPDL   —   Creative Commons Attribution Non Commercial 3.0
T:CPDL   —   Creative Commons Attribution Non Commercial 3.0
C:Carl Reinecke
Z:CPDL   —   Creative Commons Attribution Non Commercial 3.0
%%score [ 1 2 3 4 ]
L:1/8
Q:1/4=80
M:3/4
K:Eb
V:1 treble nm="Sopran"
V:2 treble nm="Alt"
V:3 treble-8 nm="Tenor"
V:4 bass nm="Bass"
V:1
"^Andante"!pp! G2 | G3 G GG | G2 G3 A | B3 B EA | G2 F3 F |!<(! GG (=A2 c>)B!<)! | B4!p! G2 | %7
w: 1.  Die|Son- ne sin- ket|nie- der, die|stil- le Nacht kommt|wie- der und|Ruh' und Schlaf _ mit|ihr, und|
w: 2.  Du|führst aus dunk- ler|Fer- ne den|Mond und tau- send|Ster- ne am|Fir- ma- ment _ her-|auf, am|
w: 3. Wem|kann ich o- hne|Grau- en mich|fro- her denn ver-|trau- en als,|güt'- ger Va- * ter,|dir, als,|
 GF _A3 G | E4!mf! G2 | F3 F FF | B2 B2 z G | G3 G =AB | c2 c2 z2 | !>!d2!<(! dd BG | !>!E2 E2 z2 | %15
w: Ruh' und Schlaf mit|ihr; sie|bringt uns neu- e|Kräf- te, für|je- des Tags Ge-|schäf- te,|das dan- ken wir, o|Va- ter,|
w: Fir- ma- ment her-|auf; sie|leuch- ten dir zur|Eh- re, sie|leuch- ten dir zur|Eh- re|hoch ü- ber Land und|Mee- re,|
w: güt'- ger Va- ter,|dir? Ja|Va- ter, dir be-|feh- le ich|je- tzo Leib und|See- le,|ja Va- ter, dir be-|feh- le|
 f2 ff dB | A2 G2!<)!!f! g2- | g2 f3 e |"^decresc." (e6- | e2 d3) c | c4 F2 |!p! A4 D2 | %22
w: das dan- ken wir, o|Va- ter, das|_ dan- ken|wir,|_ _ o|Va- ter,|Va- ter|
w: hoch ü- ber Land und|Mee- re, du|_ a- ber|len-|* * kest|ih- ren|Lauf, du|
w: ich je- tzo Leib und|See- le, lass|_ dei- nen|Se-|* * gen|ruh'n, lass|dei- nen|
 E4!pp! E2 | E4 E2 | !fermata!E4 |] %25
w: dir, o|Va- ter|dir!|
w: len- kest|ih- ren|Lauf!|
w: Se- gen|ruh'n auf|mir!|
V:2
!pp! E2 | E3 E EE | E2 E2 E2 | E3 _D CE | E2 =D2 D2 |!<(! EG G2 ^F2!<)! | G4 z!p! D | (C2 =F)E DD | %8
w: 1.  Die|Son- ne sin- ket|nie- der, die|stil- le Nacht kommt|wie- der und|Ruh' und Schlaf mit|ihr, und|Ruh' _ und Schlaf mit|
w: 2.  Du|führst aus dunk- ler|Fer- ne den|Mond und tau- send|Ster- ne am|Fir- ma- ment her-|auf, am|Fir- * ma- ment her-|
w: 3. Wem|kann ich o- hne|Grau- en mich|fro- her denn ver-|trau- en als,|güt'- ger Va- ter,|dir, als,|güt'- * ger Va- ter,|
 E4!mf! G2 | F3 E DC | B,2 B,D GF | EF ED CB, | =A,2 A,2 z2 | z ^F!<(! G3 G | (!>!B2 _A2) z2 | %15
w: ihr; sie|bringt uns neu- e|Kräf- te, für je- des|Tags, für je- des Tags Ge-|schäf- te,|das dan- ken|wir, _|
w: auf; sie|leuch- ten dir zur|Eh- re, sie leuch- ten|dir zur Eh- re, dir zur|Eh- re|ob Land und|Mee- re,|
w: dir? Ja|Va- ter, dir be-|feh- le, ja Va- ter,|dir be- feh'l ich Leib und|See- le,|ja dir be-|feh- le|
 A2 A3 F | (F2 E2)!<)! z2 |!f! B4 =B2 | (c2"^decresc." _B3) A | A4 z2 | C2 F3 E |!p! (E2 D2) B,2 | %22
w: o Va- ter,|dir, _|dan- ken,|dan- * ken|dir,|das dan- ken|wir, _ o|
w: du a- ber|len- kest|len- kest|ih- * ren|Lauf,|du a- ber,|Va- * ter,|
w: ich Leib und|See- le,|dei- nen|Se- * gen|lass,|lass dei- nen|Se- * gen|
 B,4!pp! _D2 | C4 C2 | !fermata!B,4 |] %25
w: Va- ter,|Va- ter|dir!|
w: len- kest|ih- ren|Lauf!|
w: ruh'n auf|mir, auf|mir!|
V:3
!pp! G2 | G3 G GG | G>A G3 z | z E E3 c | B2 B2 B2 |!<(! BB c2 d2!<)! | d4 z!p! B | cc c2 BA | %8
w: 1.  Die|Son- ne sin- ket|nie- * der,|die Nacht kommt|wie- der und|Ruh' und Schlaf mit|ihr, und|Ruh' und Schlaf mit _|
w: 2.  Du|führst aus dunk- ler|Fer- * ne|den Mond, die|Ster- ne am|Fir- ma- ment her-|auf, am|Fir- ma- ment her- *|
w: 3. Wem|kann ich o- hne|Grau- * en|denn fro- her|trau- en als,|güt'- ger Va- ter,|dir, als,|güt'- ger Va- ter, _|
 G4 z2 | z!mf! e dc B=A | G2 G2 z2 | z d cB =AG | G2 ^F2 z2 | d2!<(! d3 d | e3 e cA | F2 B4 | %16
w: ihr;|sie bringt uns neu- e|Kräf- te,|für je- des Tags Ge-|schäf- te,|das dan- ken|wir, o Va- ter,|dir, das|
w: auf;|sie leuch- ten dir zur|Eh- re,|hoch ü- ber Land und|Mee- re|du a- ber|len- kest ih- ren|Lauf, du|
w: dir?|Ja Va- ter, dir be-|feh- le|ich je- tzo Leib und|See- le,|lass dei- nen|Se- gen ruh'n auf|mir, lass|
 B3 B GE!<)! |!f! (e6- | e2"^decresc." d3) c | c4 z2 | z6 |!p! F2 B3 A | G4!pp! E2 | E4 A2 | %24
w: dan- ken wir, o|Va-|* * ter,|dir,||das dan- ken|wir, o|Va- ter|
w: a- ber len- kest|ih-|* * ren|Lauf,||du a- ber,|len- kest|ih- ren|
w: dei- nen Se- gen|ruh'n|_ _ auf|mir,||lass dei- nen|Se- gen|ruh'n auf|
 !fermata!G4 |] %25
w: dir!|
w: Lauf!|
w: mir!|
V:4
!pp! E,2 | E,3 E, D,D, | C,2 C,2 C,2 | G,,3 G,, A,,A,, | B,,2 B,,2 B,2 |!<(! E,E, E,2 D,2!<)! | %6
w: 1.  Die|Son- ne sin- ket|nie- der, die|stil- le Nacht kommt|wie- der und|Ruh' und Schlaf mit|
w: 2.  Du|führst aus dunk- ler|Fer- ne den|Mond und tau- send|Ster- ne am|Fir- ma- ment her-|
w: 3. Wem|kann ich o- hne|Grau- en mich|fro- her denn ver-|trau- en als,|güt'- ger Va- ter,|
 G,2!p! G,4 | A,A, F,2 B,,2 | E,4 z2 | z6 | z!mf! D, G,F, E,D, | C,2 C,2 z2 | z =A,, D,E, D,C, | %13
w: ihr, und|Ruh' und Schlaf mit|ihr;||sie bringt uns neu- e|Kräf- te,|für je- des Tags Ge-|
w: auf, am|Fir- ma- ment her-|auf;||sie leuch- ten dir zur|Eh- re|hoch ü- ber Land und|
w: dir, als,|güt'- ger Va- ter,|dir?||Ja Va- ter, dir be-|feh- le|ich je- tzo Leib und|
 B,,2!<(! B,,4 | C,2 C,3 C, | D,D, D,3 D, | E,4!<)! z2 |!f! G,4 G,2 |"^decresc." A,6- | A,4 z2 | %20
w: schäf- te,|das dan- ken|wir, o Va- ter,|dir,|dan- ken|wir,|_|
w: Mee- re,|du a- ber|len- kest ih- ren|Lauf,|ih- ren|Lauf,|_|
w: See- le,|lass dei- nen|Se- gen ruh'n auf|mir,|ruh'n auf|mir,|_|
 A,4 A,,2 |!p! B,,4 B,,2 | E,4!pp! G,,2 | A,,4 C,2 | !fermata!E,4 |] %25
w: dan- ken|wir, o|Va- ter,|Va- ter|dir!|
w: len- kest|ih- ren|Lauf, lenkst|ih- ren|Lauf!|
w: dei- nen|Se- gen|las- se|ruh'n auf|mir!|

